X: 23376
T: Leitrim, The
R: polka
M: 2/4
K: Dmajor
|:d2 d>A|Bd AF|DF Ad|fg ef|
d/e/f/e/ d>A|Bd AF|Da fd|1 ed d>c:|2 ed d>e||
|:fa af/e/|fa fe|fa de|fa e>g|
fa af/a/|ba fd|Aa fd|1 ed d>e:|2 ed d>c||

